X:62
T:Phil The Fluter's Ball
C:Joe Buchanan's Scottish Tome - Page 243.1
I:243 1
Z:Carl Allison
R:Hornpipe
L:1/8
M:4/4
K:D
F>E | "D"D2 D2 "D7"d2 (d>c) | "G"B>AB>c "D"d2 d2 | "D"D2 D2 "Bm"d2 (d>B) | "Em"A>BA>F "A7"E2 (F>E) |
"D"D2 D>D "D7"d2 d>c | "G"B>AB>c "D"d2 (d>e) | "D"f>d"A/C#"e>c "Bm"d>c"A7"B>A | "E7"B>d"A7"c>e "D"d2 :|
de | "D"f2 f>d "F#7"e2 e>c | "G"d>ed>B "D"A>F D2 | "D"f2 f>d "F#7"e2 e>c | "E7"d>c B<e "A7"A2 d>e |
"D"f2 f>d "F#7"e2 e>c | "G"d>ed>B "D"A>FD>F | "D"A>BA>F "G"d>cd>B | "D"A>BA>F "A7"E2 F>E |
"D"D2 D2 "D7"d2 d>c | "G"B>AB>c "D"d2 d2 | "D"D2 D2 "Bm"d2 d>B | "Em"A>BA>F "A7"E2 (F>E) |
"D"D2 DD "D7"d2 d>c | "G"B>AB>c "D"d2 d>e | "D"f>d"A/C#"e>c "Bm"d>c"A7"B>A | "E7"B>d"A7"c>e "D"d2 |]

